Obsidian/actions/16s/snap-node.svg

<svg height="16" viewBox="0 0 16 16" width="16" xmlns="http://www.w3.org/2000/svg"><path d="m10 5v2h-3v1h3v2h5v-5zm-9 2v1h1v-1zm2 0v1h1v-1zm2 0v1h1v-1z" fill="#bebebe"/></svg>

<svg xmlns="http://www.w3.org/2000/svg" width="16" height="16" viewBox="0 0 16 16">
 <defs>
  <style id="current-color-scheme" type="text/css">
   .ColorScheme-Text { color:#bebebe; } .ColorScheme-Highlight { color:#4285f4; }
  </style>
 </defs>
 <path style="fill:currentColor" class="ColorScheme-Text" d="M 10 5 L 10 7 L 7 7 L 7 8 L 10 8 L 10 10 L 15 10 L 15 5 L 10 5 z M 1 7 L 1 8 L 2 8 L 2 7 L 1 7 z M 3 7 L 3 8 L 4 8 L 4 7 L 3 7 z M 5 7 L 5 8 L 6 8 L 6 7 L 5 7 z"/>
</svg>
